X: 1934
T: Vech-i Şehnâz`ı Temâşâ
C: Ahmet Avni Konuk
O: Turkey
F: http://compmusic.upf.edu/node/140
N: vechisehnaz--kupe--duyek--vech-i--ahmet_avni_konuk
N: makam= vechisehnaz
N: form= kupe
N: usul= duyek = 8/4
M: 8/4
L: 1/16
K: C    
Q: 1/4=57
%%MIDI tuningsystem comma53
z4 ^d8 e4 ^g2f4e2 f3e d2e2  | ^d4 e2f2 e4 f4 a3^g f2g2 baag a4  | 
w:  Vech_ i  Şeh *  *  nâ  |  *  zı  *  *  te mâ *  *  *  şâ   | 
z4 e2f2 e4 d4 f3e d2^c2 d6z2  | z4 a3^g f4 g4 a4 g2b2 a8  | \
w:  ey *  *  le yen  *  *  *  üf  |  tâ *  *  de ler    | 
z4 g2a2 g4 a4 a2c'2 b2a2 a3g ^3/4f2^3/4e2  | 
w:  Bir  *  *  da ha  *  *  *  ol   | 
^3/4f4 e2f2 e4 f4 g4 a2g2 =f3e d4  | \
w:  *  dil *  *  be *  ri  *  gör  | 
z4 g4 f4 e2f2 e2d4f2 e2d2 ^3/4c2_7/8B2  | 
w:  mek  *  i *  çin  *  *  has  | 
A4 ^3/4c4 d2_7/8e2 d2c2 c2_7/8B2 B2A2 A6z2  | |


